X: 1
T: the Tosa Waltz
C: Michael Cassidy 1996
N: This tune was composed in 1996 by Michael Cassidy, fiddle player with the group
N: Craobh  Rua.   It was composed during a trip to America in 1996, for friends in
N: Wauwatosa, Wisconsin.
S: http://grainne.harp.net/BTSnotes.htm
M: 3/4
L: 1/8
R: waltz
K: G
|: DGA |\
"G"B3 d B2 | "D7"c3 A [c2D2] | "G"{A}B3 AGD | "C"EG2- G (3GFE |\
"G"D3 E G2 | D3 E G2 | D2 G2 B2 | "D7"A3 DGA |
"G"B3 d B2 | "D7"c3 A [c2D2] | "G"{A}B3 AGD | "C"EG2 G (3GFE |\
"G"D3 E G2 | "D7"D2 B2 A2 | "C"G3 A GF | "G"G3 :|
|: "D7"def |\
"G"g2 d3 g | "C"e2 d3 c | "G"{A}B2- BA GD | "C"EG2- G (3GFE |\
"G"D3 E GA | B2 c2 d2 | "C"e2 ef ga | "D7"f3 {e}d (3def |
"G"g2 d3 g | "C"e2 d3 c | "G"{A}B2- BA GD | "C"EG2 G (3GFE |\
"G"D3 E GA | B2 g2 B2 | "D7"A4 G>F | "G"G3 :|
%%text http://www.youtube.com/watch?v=V8vcoAqqdng
%%text http://www.youtube.com/watch?v=ZNbC3v6pK60
%%text http://www.youtube.com/watch?v=ztvAiPUYZ9s
